X:258
T:Astley’s Hornpipe TS.258
M:C
L:1/8
Q:1/2=84
S:Thomas Sands’ MS,1810,Lincolnshire
R:.hornpipe
O:England;Lincolnshire
Z:vmp.Ruairidh Greig, 2011
K:G
“qu. in ms”D2|G>AB>c e>dc>B|a>gf>ee2d>c|B>dB>G c>ec>A|B>d E>A G>FE>D|
G>AB>c e>dc>B|a>gf>ee2d>c|B>dB>G c>ec>A|G2F2G2:|
|:”qu.in ms”d2|d>ef>g f>af>d|g>bg>e f>af>d|d>ef>g a>fd>c|B>dB>G F>AF>D|
B>dB>G c>ec>A|f>af>d g>bg>e|d>gf>e d>cB>A|G2F2G2:|]

